X:10547
T:Mazurka de Freign
C:Trad 1, 14
M:3/4
L:1/8
K:C
cd|e2 (3ded cd|d2 (3cdc Bc|\
d2 ef ed|e2c2cd|\
e2 (3ded cd|d2 (3cdc Bc|\
d2 ef ed|c4:|
cd|e2 (3ggg fe|de dc Bc|\
d2 ef ed|e2c2 cd|\
e2 (3ggg fe|de dc Bc|\
d2 ef ed|1c4:|2 c3||
d (3edc|B3 c (3dcB|A2 GA Bc|\
d2 ef ed|e2 cd (3edc|\
B3 c (3dcB|A2 GA Bc|\
d2 ef ed|1c3:|2 c4||
